X: 6178
T: Car Ny Rankee
R: polka
M: 2/4
K: Dmajor
DF DF|DF AG/F/|EG EG|EG BA/G/|
FA FA|FA dc/B/|AG FE|D2 D2:|
AB/c/ dB|AF F2|AB/c/ dA|FG E2|
DE FE|DE FG|AG FE|D2 D2:|

